icon-svg/xiaomi-logo.svg

<?xml version="1.0" encoding="UTF-8" standalone="no"?>
<svg
   id="Livello_1"
   data-name="Livello 1"
   viewBox="0 0 24 24"
   version="1.1"
   width="24"
   height="24"
   xmlns="http://www.w3.org/2000/svg"
   xmlns:svg="http://www.w3.org/2000/svg">
  <path id="Colore_riempimento_1" fill="#44739e" data-name="Colore riempimento 1" class="cls-1"
     d="M 23.81439,3.23438 V 2.95508 H 23.76752 L 23.72064,2.58594 H 23.67572 V 2.44531 H 23.62891 L 23.582,2.21484 H 23.53708 L 23.4902,2.0293 H 23.44333 V 1.93555 L 23.35153,1.89062 23.30466,1.70508 23.21286,1.6582 V 1.56641 L 23.02731,1.42578 V 1.334 L 22.93356,1.28713 22.65625,0.96289 h -0.0918 L 22.42578,0.77734 H 22.332 L 22.28711,0.68555 22.10156,0.63867 22.05469,0.54688 h -0.0918 V 0.5 L 21.77734,0.45312 V 0.40625 L 21.54492,0.36133 V 0.31445 H 21.40625 V 0.26758 L 21.03516,0.2207 V 0.17578 H 20.80469 V 0.12891 H 3.209 C 3.09359,0.23157 2.91231,0.16705 2.74611,0.22266 V 0.26758 L 2.46875,0.31445 V 0.36133 H 2.375 V 0.40625 H 2.23633 V 0.45312 L 2.05078,0.5 V 0.54688 H 1.959 L 1.91211,0.63867 1.72656,0.68555 1.63477,0.82422 H 1.541 L 1.4492,0.96289 H 1.3574 L 1.31053,1.05664 0.98633,1.334 V 1.4258 L 0.84766,1.51955 v 0.0918 L 0.709,1.70508 0.66213,1.89062 0.57033,1.93555 V 2.0293 H 0.52344 L 0.47656,2.21484 H 0.42969 V 2.35352 H 0.38477 V 2.44531 H 0.33789 V 2.58594 H 0.291 V 2.72461 H 0.24609 V 2.95508 H 0.19922 V 3.1875 H 0.15234 v 17.60938 h 0.04688 l 0.04687,0.46289 H 0.291 l 0.04687,0.27929 h 0.0469 l 0.04492,0.23047 h 0.04687 l 0.04688,0.18555 h 0.04687 v 0.09375 l 0.0918,0.04492 0.04689,0.18555 0.13868,0.09375 v 0.09179 l 0.13867,0.09375 v 0.0918 l 0.09179,0.04688 0.23243,0.27734 h 0.09179 l 0.13868,0.18555 0.14062,0.04687 0.04492,0.0918 0.18555,0.04687 0.04687,0.09375 h 0.0918 v 0.04493 l 0.18555,0.04687 v 0.04687 L 2.46877,23.625 v 0.04492 h 0.13867 v 0.04688 l 0.36914,0.04687 v 0.04492 H 3.209 v 0.04688 h 15.6504 a 8.78781,8.78781 0 0 0 1.89843,-0.04688 h 0.27735 v -0.04492 l 0.37109,-0.04687 v -0.04688 h 0.13867 v -0.04687 l 0.23242,-0.04493 v -0.04687 l 0.18555,-0.04687 v -0.04493 h 0.0918 l 0.04687,-0.09375 0.18555,-0.04687 0.04492,-0.0918 0.13867,-0.04687 0.09375,-0.13868 h 0.0918 l 0.04687,-0.09179 0.32422,-0.2793 v -0.0918 l 0.13868,-0.09375 v -0.09179 l 0.13867,-0.09375 0.04687,-0.1836 0.0918,-0.04687 v -0.09375 h 0.04687 l 0.04688,-0.18555 H 23.582 l 0.04688,-0.23047 h 0.04681 v -0.13867 h 0.04492 l 0.04688,-0.37109 h 0.04687 V 20.752 h 0.04688 V 3.23438 Z M 11.44666,17.14648 H 9.0708 v -6.52575 h 2.37586 z m 4.12017,0.0062 h -2.212 C 13.34372,16.91547 13.32608,16.69012 13.32376,16.4646 13.30405,14.51123 13.32076,12.5564 13.25754,10.6048 13.21487,9.28528 12.73929,8.77271 11.56424,8.72113 10.20779,8.66168 8.84854,8.68073 7.49045,8.67029 A 1.47135,1.47135 0 0 0 7.18906,8.74347 v 8.398 H 4.8783 C 4.86725,16.93303 4.84851,16.74419 4.84845,16.55535 4.84662,13.38976 4.8573,10.22405 4.83691,7.05858 4.83356,6.53807 4.97003,6.39293 5.42791,6.40264 7.77813,6.4522 10.12896,6.46605 12.47954,6.49578 a 2.75619,2.75619 0 0 1 0.46735,0.05115 c 1.80176,0.33508 2.5058,1.04888 2.59466,3.10455 0.10689,2.47132 0.02528,4.95295 0.02528,7.50117 z m 4.28174,-0.0038 h -2.30011 c -0.01159,-0.1864 -0.03308,-0.37243 -0.0332,-0.55847 -0.0021,-3.1867 0.0071,-6.37353 -0.01074,-9.56018 -0.0027,-0.48871 0.12317,-0.66144 0.56006,-0.62567 a 13.83554,13.83554 0 0 0 1.41088,0.00665 c 0.25641,-0.00525 0.37775,0.08759 0.37714,0.4032 -0.0064,3.42011 -0.004,6.84027 -0.004,10.33447 z" />
</svg>

<svg xmlns="http://www.w3.org/2000/svg" data-name="Livello 1" viewBox="0 0 24 24"><path fill="#44739e" d="M23.8144 3.2344V2.955h-.0469l-.0469-.3692h-.0449v-.1406h-.0468l-.0469-.2305h-.045l-.0468-.1855h-.0469v-.0937l-.0918-.045-.0468-.1855-.0918-.0469v-.0918l-.1856-.1406V1.334l-.0937-.0469-.2773-.3242h-.0919l-.1386-.1856h-.0938l-.0449-.0917-.1855-.047-.047-.0917h-.0917V.5l-.1856-.0469V.4063l-.2324-.045V.3145h-.1386v-.047l-.3711-.0468v-.045h-.2305V.129H3.209c-.1154.1027-.2967.0382-.4629.0938v.0449l-.2774.0469v.0468H2.375v.045h-.1387V.453L2.0508.5v.0469H1.959l-.0469.0918-.1855.0468-.0918.1387H1.541L1.4492.963h-.0918l-.0469.0937-.3242.2774v.0918l-.1386.0938v.0917l-.1387.0938-.0469.1855-.0918.045v.0937H.5234l-.0468.1855h-.047v.1387H.3849v.0918h-.047v.1406H.291v.1387H.246v.2305H.1993v.2324h-.047V20.797h.047l.0468.4629H.291l.0469.2793h.0469l.0449.2304h.0469l.0468.1856h.047v.0937l.0917.045.0469.1855.1387.0938v.0917l.1386.0938v.0918l.0918.0469.2325.2773h.0918l.1386.1856.1407.0468.0449.0918.1855.0469.0469.0937h.0918v.045l.1855.0468v.047l.2325.0468v.045h.1386v.0468l.3692.0469v.0449h.2324v.0469h15.6504a8.8 8.8 0 0 0 1.8984-.047h.2774v-.0448l.371-.0469V23.67h.1387v-.0468l.2325-.045v-.0468l.1855-.047v-.0448h.0918l.0469-.0938.1855-.0469.045-.0918.1386-.0468.0938-.1387h.0918l.0468-.0918.3243-.2793v-.0918l.1386-.0938v-.0917l.1387-.0938.0469-.1836.0918-.0469v-.0937h.0468l.047-.1856h.0448l.0469-.2304h.0468v-.1387h.045l.0468-.3711h.0469v-.2773h.0468V3.2344Zm-12.3677 13.912H9.0708v-6.5257h2.3759zm4.1201.0063h-2.212c-.011-.2372-.0287-.4626-.031-.6881-.0198-1.9534-.003-3.9082-.0663-5.8598-.0426-1.3195-.5182-1.832-1.6933-1.8837-1.3564-.0594-2.7157-.0404-4.0737-.0508a1.47 1.47 0 0 0-.3014.0732v8.398H4.8783c-.011-.2085-.0298-.3973-.0299-.5861-.0018-3.1656.0089-6.3313-.0115-9.4968-.0033-.5205.1331-.6657.591-.656 2.3502.0496 4.701.0635 7.0516.0932a2.76 2.76 0 0 1 .4674.0511c1.8018.3351 2.5058 1.049 2.5947 3.1046.1068 2.4713.0252 4.953.0252 7.5011zm4.2818-.0038h-2.3001c-.0116-.1864-.0331-.3724-.0332-.5585-.0021-3.1867.007-6.3735-.0108-9.5602-.0027-.4887.1232-.6614.56-.6256a13.8 13.8 0 0 0 1.411.0066c.2564-.0052.3777.0876.3771.4032-.0064 3.4201-.004 6.8403-.004 10.3345" class="cls-1" data-name="Colore riempimento 1"/></svg>
